lib/assets/icons/svg/outlined-communication-help.svg

<svg xmlns="http://www.w3.org/2000/svg" viewBox="0 0 24 24"><path d="M12.007 21.55c-7.352 0-11.946-7.958-8.271-14.325 3.676-6.367 12.866-6.367 16.542 0A9.553 9.553 0 0 1 21.557 12a9.56 9.56 0 0 1-9.55 9.55zm0-18c-6.505 0-10.57 7.042-7.318 12.675 3.252 5.633 11.384 5.633 14.636 0A8.448 8.448 0 0 0 20.457 12a8.46 8.46 0 0 0-8.45-8.45zm0 10.55a.5.5 0 0 1-.5-.5 3.828 3.828 0 0 1 1.64-3.07c.62-.56 1-.93 1-1.58a2.19 2.19 0 0 0-2.14-2.2 2.16 2.16 0 0 0-2.2 1.95.51.51 0 0 1-.55.45.5.5 0 0 1-.45-.55 3.15 3.15 0 0 1 3.2-2.85A3.18 3.18 0 0 1 15.157 9a3.06 3.06 0 0 1-1.35 2.33 2.87 2.87 0 0 0-1.3 2.32.5.5 0 0 1-.5.45zm0 1.9a.795.795 0 0 1 .8.8.8.8 0 1 1-1.513-.364l.037-.065a.795.795 0 0 1 .676-.371z"/></svg>

<svg viewBox="0 0 24 24" xmlns="http://www.w3.org/2000/svg">
  <path  d="M 12.007 21.55 C 4.655 21.55 0.061 13.592 3.736 7.225 C 7.412 0.858 16.602 0.858 20.278 7.225 C 21.116 8.677 21.557 10.324 21.557 12 C 21.551 17.272 17.279 21.544 12.007 21.55 Z M 12.007 3.55 C 5.502 3.55 1.437 10.592 4.689 16.225 C 7.941 21.858 16.073 21.858 19.325 16.225 C 20.067 14.94 20.457 13.483 20.457 12 C 20.451 7.335 16.672 3.556 12.007 3.55 Z M 12.007 14.1 C 11.731 14.1 11.507 13.876 11.507 13.6 C 11.53 12.373 12.14 11.231 13.147 10.53 C 13.767 9.97 14.147 9.6 14.147 8.95 C 14.153 7.756 13.201 6.777 12.007 6.75 C 10.876 6.724 9.917 7.574 9.807 8.7 C 9.776 8.974 9.532 9.173 9.257 9.15 C 8.98 9.124 8.778 8.877 8.807 8.6 C 8.964 6.959 10.359 5.716 12.007 5.75 C 13.779 5.766 15.196 7.228 15.157 9 C 15.091 9.944 14.593 10.804 13.807 11.33 C 13.02 11.844 12.534 12.71 12.507 13.65 C 12.481 13.906 12.265 14.101 12.007 14.1 Z M 12.007 16 C 12.073 16 12.138 16.008 12.2 16.023 C 12.39 16.07 12.565 16.186 12.683 16.371 C 12.761 16.495 12.807 16.642 12.807 16.8 C 12.807 17.242 12.449 17.6 12.007 17.6 C 11.728 17.6 11.497 17.463 11.355 17.264 C 11.32 17.215 11.291 17.162 11.268 17.106 C 11.182 16.901 11.18 16.658 11.294 16.436 C 11.306 16.414 11.318 16.392 11.331 16.371 C 11.449 16.186 11.624 16.07 11.814 16.023 C 11.876 16.008 11.941 16 12.007 16 Z"/>
</svg>
